src/icons/coconut.svg

<svg viewBox="0 0 24 24" xmlns="http://www.w3.org/2000/svg">
  <path
    d="M8.042 3.036C7.79202 3.10089 7.54595 3.18002 7.305 3.273C6.778 3.493 6.322 3.765 5.92 4.097C5.83283 4.17269 5.74098 4.24283 5.645 4.307C5.519 4.363 4.945 4.962 4.638 5.359C2.906 7.606 2.196 10.872 2.778 13.924C2.854 14.32 3.117 15.286 3.243 15.63C4.007 17.715 5.379 19.349 7.171 20.303C8.583 21.056 10.255 21.363 11.993 21.19C12.341 21.156 12.517 21.127 13.078 21.025C13.311 20.982 14.459 20.64 14.737 20.53C17.129 19.584 19.102 17.948 20.309 15.912C20.815 15.057 21.105 14.243 21.338 13.03C21.708 11.107 20.836 8.768 19.014 6.801C16.371 3.947 12.226 2.342 8.834 2.859C8.56677 2.90417 8.30308 2.96325 8.042 3.036ZM8.462 4.543C8.742 4.467 9.037 4.404 9.275 4.376C9.93799 4.29929 10.6081 4.30735 11.269 4.4C14.4 4.82 17.577 6.888 19.075 9.477C19.573 10.338 19.863 11.267 19.878 12.055C19.89 12.69 19.749 13.235 19.447 13.734C19.3014 13.9788 19.1158 14.1975 18.898 14.381C18.285 14.919 17.443 15.257 16.397 15.386C15.849 15.453 15.477 15.592 15.167 15.846C15.099 15.902 14.525 16.434 13.888 17.028C12.64 18.194 12.651 18.185 12.468 18.132C12.4127 18.1132 12.3617 18.0837 12.318 18.045C12.188 17.923 12.192 17.885 12.397 16.821C12.502 16.278 12.585 15.768 12.584 15.689C12.5776 15.4116 12.4723 15.1456 12.287 14.939C12.174 14.814 11.987 14.695 11.74 14.589C9.381 13.582 7.397 11.813 6.445 9.867C6.26773 9.52074 6.12955 9.15583 6.033 8.779C5.743 7.718 5.813 6.866 6.252 6.096C6.574 5.531 7.029 5.132 7.739 4.794C7.917 4.71 8.182 4.619 8.462 4.543Z"
    fill="#8D6E63"
  />
</svg>

<svg viewBox="0 0 24 24" xmlns="http://www.w3.org/2000/svg">
  <path
    d="M8.042 3.036a6.777 6.777 0 0 0-.737.237c-.527.22-.983.492-1.385.824a2.755 2.755 0 0 1-.275.21c-.126.056-.7.655-1.007 1.052-1.732 2.247-2.442 5.513-1.86 8.565.076.396.339 1.362.465 1.706.764 2.085 2.136 3.719 3.928 4.673 1.412.753 3.084 1.06 4.822.887.348-.034.524-.063 1.085-.165.233-.043 1.381-.385 1.659-.495 2.392-.946 4.365-2.582 5.572-4.618.506-.855.796-1.669 1.029-2.882.37-1.923-.502-4.262-2.324-6.229-2.643-2.854-6.788-4.459-10.18-3.942a7.792 7.792 0 0 0-.793.177zm.42 1.507c.28-.076.575-.139.813-.167a7.858 7.858 0 0 1 1.994.024c3.131.42 6.308 2.488 7.806 5.077.498.861.788 1.79.803 2.578.012.635-.129 1.18-.431 1.679a2.554 2.554 0 0 1-.549.647c-.613.538-1.455.876-2.501 1.005-.548.067-.92.206-1.23.46-.068.056-.642.588-1.279 1.182-1.248 1.166-1.237 1.157-1.42 1.104a.44.44 0 0 1-.15-.087c-.13-.122-.126-.16.079-1.224.105-.543.188-1.053.187-1.132a1.163 1.163 0 0 0-.297-.75c-.113-.125-.3-.244-.547-.35-2.359-1.007-4.343-2.776-5.295-4.722a5.243 5.243 0 0 1-.412-1.088c-.29-1.061-.22-1.913.219-2.683.322-.565.777-.964 1.487-1.302.178-.084.443-.175.723-.251z"
    style="fill: #8d6e63; stroke-width: 0.023397"
  />
</svg>
